src/next/res/tb05.svg

<svg height="16" width="16" xmlns="http://www.w3.org/2000/svg" xmlns:xlink="http://www.w3.org/1999/xlink"><filter id="a"><feGaussianBlur stdDeviation="2.0786429"/></filter><radialGradient id="b" cx="108" cy="128.54001" gradientTransform="matrix(.98281247 0 0 .98248353 -1.799998 11.962339)" gradientUnits="userSpaceOnUse" r="139.55859"><stop offset="0" stop-color="#b7b8b9"/><stop offset=".18851049" stop-color="#ececec"/><stop offset=".25718147" stop-color="#fafafa"/><stop offset=".30111277" stop-color="#fff"/><stop offset=".5313" stop-color="#fafafa"/><stop offset=".8449" stop-color="#ebecec"/><stop offset="1" stop-color="#e1e2e3"/></radialGradient><radialGradient id="c" cx="-32" cy="9.6" gradientTransform="matrix(3.0760953 3.0760953 -15.380477 15.380477 354.61753 -25.568953)" gradientUnits="userSpaceOnUse" r="5.6"><stop offset="0" stop-color="#a50606"/><stop offset="1" stop-color="#f20909"/></radialGradient><g transform="matrix(.125 0 0 .125 -.003906 0)"><path d="m4.0031786 21.75119-.00318 86.469h117.9650214l.003-86.469z" filter="url(#a)" opacity=".758364" transform="matrix(.98281249 0 0 .98281249 2.131251 .657034)"/><path d="m8.0312499 24-.00312 80.06875h111.1770001l.82924-.82925.003-79.2395z" fill="#fff" stroke-width=".982812"/><path d="m16.876562 31.8625c-.541529 0-.982785.441465-.982812.982812l-.0031 63.360938h95.052735c1.14219.0349 1.2285-1.5726 1.22851-1.81206l.003-61.548878c.00003-.541347-.4403-.982812-.98281-.982812z" fill="url(#b)" stroke-width=".982812"/><path d="m74.519531 28.027344 8.0625 8.0625-9.089843 9.089844a9.5520215 9.5520215 0 0 0 0 13.507812l7.910156 7.910156a9.5520215 9.5520215 0 0 0 13.507812 0l9.089844-9.089844 9.08984 9.089844a9.5520215 9.5520215 0 0 0 6.94532 2.792969v-41.363281z" fill="#fff" fill-opacity=".871324"/><path d="m119.84361 12.33487-15.84361 15.843611-15.843611-15.843611-7.910757 7.910757 15.843611 15.843611-15.843611 15.843611 7.910757 7.910757 15.843611-15.843611 15.84361 15.843611 7.91076-7.910757-15.84361-15.843611 15.84361-15.843611z" fill="url(#c)"/></g></svg>

<?xml version="1.0" encoding="UTF-8" standalone="no"?>
<svg
   xmlns:dc="http://purl.org/dc/elements/1.1/"
   xmlns:cc="http://creativecommons.org/ns#"
   xmlns:rdf="http://www.w3.org/1999/02/22-rdf-syntax-ns#"
   xmlns:svg="http://www.w3.org/2000/svg"
   xmlns="http://www.w3.org/2000/svg"
   xmlns:sodipodi="http://sodipodi.sourceforge.net/DTD/sodipodi-0.dtd"
   xmlns:inkscape="http://www.inkscape.org/namespaces/inkscape"
   height="16"
   width="16"
   version="1.1"
   id="svg35"
   sodipodi:docname="tb05.svg"
   inkscape:version="0.92.4 (unknown)">
  <metadata
     id="metadata41">
    <rdf:RDF>
      <cc:Work
         rdf:about="">
        <dc:format>image/svg+xml</dc:format>
        <dc:type
           rdf:resource="http://purl.org/dc/dcmitype/StillImage" />
        <dc:title></dc:title>
      </cc:Work>
    </rdf:RDF>
  </metadata>
  <defs
     id="defs39" />
  <sodipodi:namedview
     pagecolor="#ffffff"
     bordercolor="#666666"
     borderopacity="1"
     objecttolerance="10"
     gridtolerance="10"
     guidetolerance="10"
     inkscape:pageopacity="0"
     inkscape:pageshadow="2"
     inkscape:window-width="640"
     inkscape:window-height="480"
     id="namedview37"
     showgrid="true"
     inkscape:zoom="15.5"
     inkscape:cx="5.4210188"
     inkscape:cy="10.27022"
     inkscape:current-layer="g4790">
    <inkscape:grid
       type="xygrid"
       id="grid4780" />
  </sodipodi:namedview>
  <filter
     id="a">
    <feGaussianBlur
       stdDeviation="2.0786429"
       id="feGaussianBlur2" />
  </filter>
  <radialGradient
     id="b"
     cx="108"
     cy="128.54001"
     gradientTransform="matrix(0.98281247,0,0,0.98248353,-1.799998,11.962339)"
     gradientUnits="userSpaceOnUse"
     r="139.55859">
    <stop
       offset="0"
       stop-color="#b7b8b9"
       id="stop5" />
    <stop
       offset=".18851049"
       stop-color="#ececec"
       id="stop7" />
    <stop
       offset=".25718147"
       stop-color="#fafafa"
       id="stop9" />
    <stop
       offset=".30111277"
       stop-color="#fff"
       id="stop11" />
    <stop
       offset=".5313"
       stop-color="#fafafa"
       id="stop13" />
    <stop
       offset=".8449"
       stop-color="#ebecec"
       id="stop15" />
    <stop
       offset="1"
       stop-color="#e1e2e3"
       id="stop17" />
  </radialGradient>
  <radialGradient
     id="c"
     cx="-32"
     cy="9.6000004"
     gradientTransform="matrix(3.0760953,3.0760953,-15.380477,15.380477,354.61753,-25.568953)"
     gradientUnits="userSpaceOnUse"
     r="5.5999999">
    <stop
       offset="0"
       stop-color="#a50606"
       id="stop20" />
    <stop
       offset="1"
       stop-color="#f20909"
       id="stop22" />
  </radialGradient>
  <g
     id="g4790"
     transform="matrix(0.125,0,0,0.125,-0.00390624,0)">
    <path
       id="path25"
       transform="matrix(0.98281249,0,0,0.98281249,2.131251,0.657034)"
       d="m 4.0031786,21.75119 -0.00318,86.469 H 121.96502 l 0.003,-86.469 z"
       inkscape:connector-curvature="0"
       style="opacity:0.75836403;filter:url(#a)"
       sodipodi:nodetypes="ccccc" />
    <path
       id="path27"
       d="m 8.0312499,24 -0.00312,80.06875 H 119.20513 l 0.82924,-0.82925 0.003,-79.2395 z"
       inkscape:connector-curvature="0"
       style="fill:#ffffff;stroke-width:0.98281199"
       sodipodi:nodetypes="cccccc" />
    <path
       id="path29"
       d="m 16.876562,31.8625 c -0.541529,0 -0.982785,0.441465 -0.982812,0.982812 l -0.0031,63.360938 h 95.052735 c 1.14219,0.0349 1.2285,-1.5726 1.22851,-1.81206 l 0.003,-61.548878 c 3e-5,-0.541347 -0.4403,-0.982812 -0.98281,-0.982812 z"
       style="fill:url(#b);stroke-width:0.98281199"
       inkscape:connector-curvature="0"
       sodipodi:nodetypes="ssccssss" />
    <g
       id="g4794">
      <path
         style="fill:#ffffff;fill-opacity:0.87132401"
         inkscape:connector-curvature="0"
         d="m 74.519531,28.027344 8.0625,8.0625 -9.089843,9.089844 a 9.5520215,9.5520215 0 0 0 0,13.507812 l 7.910156,7.910156 a 9.5520215,9.5520215 0 0 0 13.507812,0 L 104,57.507812 l 9.08984,9.089844 a 9.5520215,9.5520215 0 0 0 6.94532,2.792969 V 28.027344 Z"
         id="path31" />
      <path
         inkscape:connector-curvature="0"
         style="fill:url(#c)"
         d="M 119.84361,12.33487 104,28.178481 88.156389,12.33487 80.245632,20.245627 96.089243,36.089238 80.245632,51.932849 88.156389,59.843606 104,43.999995 l 15.84361,15.843611 7.91076,-7.910757 -15.84361,-15.843611 15.84361,-15.843611 z"
         id="path33" />
    </g>
  </g>
</svg>
